X:143
T:Paidin O'Rafferty (j)
B:NFID.060
143paidin
S:?
L:1/8
M:6/8
R:jig
Q:320
K:A
EAc EAd|EAc BAF|EAc EAd|AGB AFD|
"5"EAc EAd|EAc efg|aec BAG|AcB AFE:|
P:2
"9"e^de fga|eae ecA|e^de fga|AcB AFE|
"13"e^de fga|eae efg|1 aec B2G|AcB AFE:|
[2 aec BAG|ABA ABc||
P:3
"17"dAF E2F|ABc BAB|cAF E2F|ABA AFE|
"21"cAF E2F|ABc dcd|fed c2B|AcB AFE|
"25"cAF E2F|ABc dfd|cAF E2F|ABA AFE|
"29"cAF E2F|ABc dcd|fed cdB|AcB AFE||
P:4
"33"Ace Adf|Ace cBc|Ace Adf|AcB AFE|
"37"Ace Adf|Ace agf|eac BAG|1 AcB AFE:|2 ABA ABc||
P:5
"41"dAF E2F|ABc BAB|cAF E2F|ABA AFE|
"45"cAF E2F|ABc dcd|fed c2B|AcB AFE|
"49"cAF E2F|ABc dfd|cAF E2F|ABA AFE|
"53"cAF E2F|ABc dcd|fed c2B|AcB AFD||

